X: 342
M: 6/8
L: 1/8
K: F
V: 1
|: c |\
fef gfe | fag fag | fag fcA | G3 z2F |\
V: 2 clef=bass middle=d
z |\
f3 g3 | a3 f3 | b3 g3 | f3 F3 | f3 g3 | a2=b c'3 | c'3 g3 | c'3 c2 :||: z |
f3 g3 | a3 b3 | a3 f3 | c'3 c3 | f3 g3 | a2b a2b | a2b c'2c | f3 F2 |]

